src/line/coin.svg

<svg viewBox="0 0 24 24" fill="currentColor" xmlns="http://www.w3.org/2000/svg"><path d="M12.0049 4.00281C18.08 4.00281 23.0049 6.6891 23.0049 10.0028V14.0028C23.0049 17.3165 18.08 20.0028 12.0049 20.0028C6.03824 20.0028 1.18114 17.4116 1.00957 14.1797L1.00488 14.0028V10.0028C1.00488 6.6891 5.92975 4.00281 12.0049 4.00281ZM12.0049 16.0028C8.28443 16.0028 4.99537 14.9953 3.00466 13.4533L3.00488 14.0028C3.00488 15.885 6.88751 18.0028 12.0049 18.0028C17.0156 18.0028 20.8426 15.9723 20.9999 14.1207L21.0049 14.0028L21.0061 13.4525C19.0155 14.995 15.726 16.0028 12.0049 16.0028ZM12.0049 6.00281C6.88751 6.00281 3.00488 8.12061 3.00488 10.0028C3.00488 11.885 6.88751 14.0028 12.0049 14.0028C17.1223 14.0028 21.0049 11.885 21.0049 10.0028C21.0049 8.12061 17.1223 6.00281 12.0049 6.00281Z"/></svg>

<svg xmlns="http://www.w3.org/2000/svg" viewBox="0 0 24 24">
    <g>
        <path fill="none" d="M0 0h24v24H0z"/>
        <path fill-rule="nonzero" d="M12 4c6.075 0 11 2.686 11 6v4c0 3.314-4.925 6-11 6-5.967 0-10.824-2.591-10.995-5.823L1 14v-4c0-3.314 4.925-6 11-6zm0 12c-3.72 0-7.01-1.007-9-2.55V14c0 1.882 3.883 4 9 4 5.01 0 8.838-2.03 8.995-3.882L21 14l.001-.55C19.011 14.992 15.721 16 12 16zm0-10c-5.117 0-9 2.118-9 4 0 1.882 3.883 4 9 4s9-2.118 9-4c0-1.882-3.883-4-9-4z"/>
    </g>
</svg>
